X: 38223
T: Square Of Crossmaglen, The
R: reel
M: 4/4
K: Gdorian
DGGA BGGA|BGAG FCA,B, CFFE FAcA|FC~C2 A,CFA|
DGGA BGGF|~_E3F G#FGA|BABd _ecdB|AFcA BGG2|
~g3d Bdga|bgag fcAB|cffe f2ag|fc~c2 Acba|
~g3d Bdga|bgag fcAc|~B3G AfcA|BGAF G3d|

